X: 1715
T: The Miner
B: australian traditional tunes wiki
M:3/4
L:1/4
R: Waltz
Q: 1/4=100
K:Gmaj
V:1 
D|"G"BBB|G2G|"Em"B,EE|E2E|"D7"DFA|ddc|"G"B3-|B2D|
"G"BBB|G2G|"Em"B,EE|E2E|"D"DFA|"C"cB"D7"A|"G"G3-|G2:||
% abcbook-tune_id 6342d53a573ae2142cc4146f


% abcbook-boost 0
% abcbook-tablature 
% abcbook-transpose 
% abcbook-lastupdated 1665324379715
% abcbook-soundfonts 
% abcbook-repeats 1
% NFF Book 2022
% Bush Traditions recording played by Ray Mulligan

